X: 305748
M: 2/4
L: 1/16
K: C
cBcB c2G2 | cBcB c2G2 | d^cde d2G2 | d^cde d2G2 |\
c2cd e2ef | g4 c'4 | g2e2 gfdB | c2c2c2 H|]
cBcd cBcd | edef efge | a2ag ^fgaf | g2g2"^D.C."g2 |]
cd |\
e3f e2^d2 | e4 A4 | B2B2 BBcd | cBAG ABcd |\
e3f e2d2 | e4 a2AB | cBcd cBA^G | A6 "^D.C."y|]


